X: 154
T: The Antrim lasses
C: anon.
O: Ireland
B: Francis O'Neill: "The Dance Music of Ireland" (1907) no. 154
R: Double jig
Z: Transcribed by Frank Nordberg - http://www.musicaviva.com
F: http://www.musicaviva.com/abc/tunes/ireland/oneill-1001/oneill-1001-015
4.abc
M: 6/8
L: 1/8
K: A
E|A2E Ace|ede ABA|=G2D G>Bc|dcd =G2B|A2E ABd|e2f =gfg|edc Bcd|ecA A
2: |
|:a|aga A2a|aga A2=g|=gfg =G2g|=gfg =G2B|c2c d2d|e2f =gfg|edc
 Bcd|ecA A2:|
%Bar 10-11: Originally a mixture of g naturals and g sharps:
%gfg =G2g|=gfg G2B
W:
W:
W: From Musica Viva - http://www.musicaviva.com
W: the Internet center for free sheet music downloads.


